X: 3128
T: Beauties Of Autumn
R: hornpipe
M: 4/4
K: Edorian
EG|:BEGB AFDE|FB,DF A2(3Bcd|efed BAFE|FdFE DABA|
GAGG B,DGB|ADFA d2(3efg|afec dBAF|1 F2ED E2EG:|2 F2ED EFGA||
|:B2ef eBef|g2fe fdeB|ABAF Adfa|bafe fdef|
g2ef eBef|g2fe fdeB|Aaef deBA|1 F2ED E2GA:|2 F2ED E2EG||

